svg/color/avax.svg

<svg width="64" height="65" viewBox="0 0 64 65" fill="none" xmlns="http://www.w3.org/2000/svg">
<g clip-path="url(#clip0_11313_1868)">
<rect y="0.303711" width="64" height="64" rx="32" fill="white"/>
<path fill-rule="evenodd" clip-rule="evenodd" d="M16.5937 45.0382H22.804C24.2662 45.0382 24.9973 45.0382 25.6498 44.8576C26.3652 44.6449 27.0176 44.2678 27.5601 43.7489C28.0582 43.2743 28.4177 42.6452 29.1268 41.4042L29.1272 41.4035L29.148 41.367L37.2026 27.1288C37.918 25.8789 38.2717 25.25 38.4289 24.5897C38.6019 23.8743 38.6019 23.1196 38.4289 22.4043C38.2729 21.7489 37.9155 21.1245 37.2108 19.8932L37.1947 19.8651L34.0424 14.3623C33.3899 13.2146 33.0598 12.6407 32.6431 12.4285C32.195 12.2005 31.6605 12.2005 31.2124 12.4285C30.7957 12.6407 30.4656 13.2146 29.8131 14.3623L14.4791 41.3906C13.8345 42.5226 13.5121 43.0888 13.5358 43.5524C13.5672 44.0556 13.8266 44.5116 14.2511 44.7868C14.6442 45.0382 15.2888 45.0382 16.5937 45.0382ZM47.3857 45.0382H38.4871C37.1743 45.0382 36.514 45.0382 36.1287 44.7868C35.7043 44.5116 35.4448 44.048 35.4134 43.5448C35.39 43.0846 35.7149 42.5238 36.365 41.4016L36.3651 41.4013L36.3803 41.3751L40.8219 33.7498C41.4744 32.6256 41.8045 32.0675 42.2133 31.8552C42.6612 31.6272 43.1882 31.6272 43.6361 31.8552C44.0419 32.0619 44.358 32.5963 44.9837 33.6545L44.9847 33.6561L45.0354 33.7419L49.4928 41.3672L49.5011 41.3816C49.52 41.4142 49.5386 41.4464 49.5571 41.478L49.5572 41.4781C50.175 42.5443 50.4903 43.0884 50.4677 43.5371C50.4439 44.0399 50.1767 44.5039 49.7523 44.7792C49.359 45.0382 48.6986 45.0382 47.3858 45.0382H47.3857Z" fill="white"/>
<path fill-rule="evenodd" clip-rule="evenodd" d="M63.8718 32.3037C63.8718 49.977 49.5451 64.3037 31.8718 64.3037C14.1987 64.3037 -0.128174 49.977 -0.128174 32.3037C-0.128174 14.6306 14.1987 0.303711 31.8718 0.303711C49.5451 0.303711 63.8718 14.6306 63.8718 32.3037ZM22.8039 45.0381H16.5936C15.2887 45.0381 14.6441 45.0381 14.251 44.7867C13.8265 44.5114 13.5671 44.0555 13.5357 43.5523C13.512 43.0887 13.8344 42.5225 14.479 41.3905L29.813 14.3622C30.4655 13.2145 30.7956 12.6406 31.2123 12.4283C31.6604 12.2004 32.1949 12.2004 32.643 12.4283C33.0597 12.6406 33.3898 13.2145 34.0423 14.3622L37.1946 19.865L37.2107 19.8931C37.9154 21.1244 38.2728 21.7488 38.4288 22.4041C38.6018 23.1195 38.6018 23.8742 38.4288 24.5895C38.2716 25.2499 37.9179 25.8788 37.2025 27.1287L29.1479 41.3669L29.1271 41.4034C28.4177 42.6448 28.0582 43.274 27.56 43.7487C27.0175 44.2677 26.3651 44.6448 25.6497 44.8574C24.9972 45.0381 24.2661 45.0381 22.8039 45.0381ZM38.487 45.0381H47.3856C48.6985 45.0381 49.3589 45.0381 49.7522 44.779C50.1766 44.5038 50.4438 44.0397 50.4676 43.5369C50.4902 43.0883 50.1749 42.5441 49.557 41.4779C49.5357 41.4416 49.5144 41.4047 49.4927 41.3671L45.0353 33.7418L44.9846 33.6559C44.3582 32.5967 44.042 32.0619 43.636 31.8551C43.1881 31.6271 42.6611 31.6271 42.2132 31.8551C41.8044 32.0674 41.4743 32.6255 40.8218 33.7496L36.3802 41.375L36.365 41.4012C35.7148 42.5236 35.3899 43.0844 35.4133 43.5446C35.4447 44.0478 35.7042 44.5114 36.1286 44.7867C36.5139 45.0381 37.1742 45.0381 38.487 45.0381Z" fill="#E84142"/>
</g>
<rect x="0.5" y="0.803711" width="63" height="63" rx="31.5" stroke="#070B14" stroke-opacity="0.15"/>
<defs>
<clipPath id="clip0_11313_1868">
<rect y="0.303711" width="64" height="64" rx="32" fill="white"/>
</clipPath>
</defs>
</svg>

<svg xmlns="http://www.w3.org/2000/svg" width="64" height="65" fill="none" viewBox="0 0 64 65"><g clip-path="url(#avax_svg-a)"><rect width="64" height="64" y=".304" fill="#fff" rx="32"/><path fill="#fff" fill-rule="evenodd" d="M16.594 45.038h6.21c1.462 0 2.193 0 2.846-.18a4.7 4.7 0 0 0 1.91-1.11c.498-.474.858-1.103 1.567-2.344l.021-.037 8.055-14.238c.715-1.25 1.069-1.879 1.226-2.54a4.7 4.7 0 0 0 0-2.185c-.156-.655-.514-1.28-1.218-2.51l-.016-.029-3.153-5.503c-.652-1.147-.982-1.721-1.399-1.934a1.58 1.58 0 0 0-1.43 0c-.417.213-.747.787-1.4 1.934L14.48 41.391c-.644 1.132-.967 1.698-.943 2.161.031.504.29.96.715 1.235.393.251 1.038.251 2.343.251m30.792 0h-8.899c-1.313 0-1.973 0-2.358-.251a1.6 1.6 0 0 1-.716-1.242c-.023-.46.302-1.021.952-2.143l.015-.027 4.442-7.625c.652-1.124.982-1.682 1.391-1.895a1.57 1.57 0 0 1 1.423 0c.406.207.722.741 1.348 1.8v.001l.051.086 4.458 7.625.008.015.056.096c.618 1.066.933 1.61.91 2.06a1.57 1.57 0 0 1-.715 1.241c-.393.26-1.053.26-2.366.26" clip-rule="evenodd"/><path fill="#E84142" fill-rule="evenodd" d="M63.872 32.304c0 17.673-14.327 32-32 32s-32-14.327-32-32 14.327-32 32-32 32 14.327 32 32M22.804 45.038h-6.21c-1.305 0-1.95 0-2.343-.251a1.58 1.58 0 0 1-.715-1.235c-.024-.463.298-1.03.943-2.161l15.334-27.029c.652-1.148.983-1.721 1.4-1.934a1.58 1.58 0 0 1 1.43 0c.417.213.747.786 1.4 1.934l3.152 5.503.016.028c.704 1.231 1.062 1.856 1.218 2.511.173.715.173 1.47 0 2.186-.157.66-.511 1.289-1.227 2.539l-8.054 14.238-.02.036c-.71 1.242-1.07 1.871-1.568 2.346a4.7 4.7 0 0 1-1.91 1.108c-.653.181-1.384.181-2.846.181m15.683 0h8.899c1.313 0 1.973 0 2.366-.259.425-.275.692-.74.716-1.242.022-.449-.293-.993-.911-2.06l-.064-.11-4.458-7.625-.05-.086c-.627-1.06-.943-1.594-1.349-1.8a1.57 1.57 0 0 0-1.423 0c-.409.211-.739.77-1.391 1.894l-4.442 7.625-.015.026c-.65 1.123-.975 1.683-.952 2.144.032.503.291.966.716 1.242.385.251 1.045.251 2.358.251" clip-rule="evenodd"/></g><rect width="63" height="63" x=".5" y=".804" stroke="#070B14" stroke-opacity=".15" rx="31.5"/><defs><clipPath id="avax_svg-a"><rect width="64" height="64" y=".304" fill="#fff" rx="32"/></clipPath></defs></svg>
